package/converter/svg/light/square-arrow-down-left.svg

<svg xmlns="http://www.w3.org/2000/svg" viewBox="0 0 448 512"><!-- Font Awesome Pro 6.0.0-alpha2 by @fontawesome - https://fontawesome.com License - https://fontawesome.com/license (Commercial License) --><path d="M448 416V96C448 60.656 419.346 32 384 32H64C28.654 32 0 60.656 0 96V416C0 451.344 28.654 480 64 480H384C419.346 480 448 451.344 448 416ZM416 416C416 433.645 401.645 448 384 448H64C46.355 448 32 433.645 32 416V96C32 78.355 46.355 64 64 64H384C401.645 64 416 78.355 416 96V416ZM315.312 187.312C321.562 181.062 321.562 170.937 315.312 164.688C312.188 161.562 308.094 160 304 160S295.812 161.562 292.688 164.688L160 297.375V208C160 199.156 152.844 192 144 192S128 199.156 128 208V335.625C128 344.437 135.141 351.594 143.953 351.625L271.953 352H272C280.812 352 287.969 344.875 288 336.031C288.031 327.219 280.891 320.031 272.047 320L182.898 319.727L315.312 187.312Z"/></svg>

<svg xmlns="http://www.w3.org/2000/svg" viewBox="0 0 448 512"><!--! Font Awesome Pro 6.6.0 by @fontawesome - https://fontawesome.com License - https://fontawesome.com/license (Commercial License) Copyright 2024 Fonticons, Inc. --><path d="M64 448c-17.7 0-32-14.3-32-32L32 96c0-17.7 14.3-32 32-32l320 0c17.7 0 32 14.3 32 32l0 320c0 17.7-14.3 32-32 32L64 448zM0 416c0 35.3 28.7 64 64 64l320 0c35.3 0 64-28.7 64-64l0-320c0-35.3-28.7-64-64-64L64 32C28.7 32 0 60.7 0 96L0 416zm280-64c8.8 0 16-7.2 16-16s-7.2-16-16-16l-97.4 0L315.3 187.3c6.2-6.2 6.2-16.4 0-22.6s-16.4-6.2-22.6 0L160 297.4 160 192c0-8.8-7.2-16-16-16s-16 7.2-16 16l0 144c0 8.8 7.2 16 16 16l136 0z"/></svg>
